apps/reserve.mento.org/public/protocols/aave.svg

<svg width="254" height="254" viewBox="0 0 254 254" fill="none" xmlns="http://www.w3.org/2000/svg">
<circle cx="127" cy="127" r="127" fill="#9391F7" style="fill:#9391F7;fill:color(display-p3 0.5765 0.5686 0.9686);fill-opacity:1;"/>
<path d="M103.39 133.194C114.28 131.426 121.675 121.164 119.908 110.274C118.14 99.3838 107.878 91.9885 96.9882 93.7562C86.0979 95.524 78.7026 105.785 80.4703 116.676C82.2381 127.566 92.4994 134.961 103.39 133.194Z" fill="white" style="fill:white;fill-opacity:1;"/>
<path d="M155.603 133.194C166.493 131.426 173.888 121.164 172.12 110.274C170.353 99.3838 160.091 91.9885 149.201 93.7562C138.311 95.524 130.915 105.785 132.683 116.676C134.451 127.566 144.712 134.961 155.603 133.194Z" fill="white" style="fill:white;fill-opacity:1;"/>
<path d="M126.262 31.0117C72.0206 31.0117 28.0444 75.8256 28.0586 131.089H53.1466C53.1466 89.6735 85.6224 56.095 126.262 56.095C166.902 56.095 199.378 89.6735 199.378 131.089H224.466C224.475 75.8256 180.499 31.0117 126.262 31.0117Z" fill="white" style="fill:white;fill-opacity:1;"/>
</svg>

<svg xmlns="http://www.w3.org/2000/svg" width="254" height="254" fill="none" viewBox="0 0 254 254"><circle cx="127" cy="127" r="127" fill="#9391f7" style="fill:#9391f7;fill:color(display-p3 .5765 .5686 .9686);fill-opacity:1"/><path fill="#fff" d="M103.39 133.194c10.89-1.768 18.285-12.03 16.518-22.92-1.768-10.89-12.03-18.285-22.92-16.518-10.89 1.768-18.285 12.029-16.518 22.92 1.768 10.89 12.03 18.285 22.92 16.518M155.603 133.194c10.89-1.768 18.285-12.03 16.517-22.92-1.767-10.89-12.029-18.285-22.919-16.518-10.89 1.768-18.286 12.029-16.518 22.92 1.768 10.89 12.029 18.285 22.92 16.518" style="fill:#fff;fill-opacity:1"/><path fill="#fff" d="M126.262 31.012c-54.241 0-98.218 44.814-98.203 100.077h25.088c0-41.415 32.475-74.994 73.115-74.994s73.116 33.579 73.116 74.994h25.088c.009-55.263-43.967-100.077-98.204-100.077" style="fill:#fff;fill-opacity:1"/></svg>
